X: 27875
T: Mount Vernon
R: barndance
M: 4/4
K: Aminor
E2|:A2A2 A2(3ABc|G2G2 G2c>d|e2e2 e>fe>d|1 c2A2 A2E2:|2 c2A2 A2cd||
|:e2c2 d2B2|cAGB E2cd|e2c2 d2B2|1 cAGB A2cd:|2 cAGB A2e>d||
|:c>de>f g2g2|a2b2 a4|g2e2 f2e>d|1 c2A2 A2e>d:|2 c2A2 A2A>B||
|:c2G2 A2E2|A>Bc>d e2e>f|g>ag>f e>fe>d|c2A2 A2 z2:|

